symbols/ats.svg

<svg xmlns="http://www.w3.org/2000/svg" width="48" height="48" viewBox="0 0 100 100"><title>ats</title><g class="symbol"><g class="top-left"><path class="outer" fill="#282828" d="M36.8 29.3c-4.3 0-7.7 3.5-7.7 7.7 0 4.3 3.5 7.7 7.7 7.7 4.3 0 7.7-3.5 7.7-7.7 0-4.3-3.4-7.7-7.7-7.7z"/><path class="edging" opacity=".65" fill="#FFF" d="M36.8 29.3c4.3 0 7.7 3.5 7.7 7.7 0 4.3-3.5 7.7-7.7 7.7-4.3 0-7.7-3.5-7.7-7.7 0-4.3 3.4-7.7 7.7-7.7m0-2c-5.4 0-9.7 4.4-9.7 9.7 0 5.4 4.4 9.7 9.7 9.7 5.4 0 9.7-4.4 9.7-9.7 0-5.4-4.3-9.7-9.7-9.7z"/><linearGradient id="a" gradientUnits="userSpaceOnUse" x1="36.809" y1="30.868" x2="36.809" y2="42"><stop offset="0" stop-color="#666"/><stop offset="1" stop-color="#4d4d4d"/></linearGradient><path fill="url(#a)" d="M36.8 42c-3.3 0-5.9-2.2-5.9-5.4 0-3.3 2.6-5.7 5.9-5.7 3.3 0 5.9 2.3 5.9 5.6 0 3.2-2.6 5.5-5.9 5.5z"/><path class="outer" fill="#282828" d="M36.8 32.9c2.2 0 4.1 1.8 4.1 4s-1.8 4-4.1 4-4.1-1.8-4.1-4 1.9-4 4.1-4m0-3.6c-4.3 0-7.7 3.5-7.7 7.7 0 4.3 3.5 7.7 7.7 7.7 4.3 0 7.7-3.5 7.7-7.7 0-4.3-3.4-7.7-7.7-7.7z"/><path class="highlight" opacity=".35" fill="#FFF" d="M36.8 33.6c2.2 0 4 1.8 4 4v.2c0-.2.1-.4.1-.6 0-2.2-1.8-4.2-4.1-4.2s-4.1 2-4.1 4.2v.2c.2-2.2 2-3.8 4.1-3.8z"/></g><g class="top-right"><path class="outer" fill="#282828" d="M63.8 29.3c-4.3 0-7.7 3.5-7.7 7.7 0 4.3 3.5 7.7 7.7 7.7 4.3 0 7.7-3.5 7.7-7.7 0-4.3-3.4-7.7-7.7-7.7z"/><path class="edging" opacity=".65" fill="#FFF" d="M63.8 29.3c4.3 0 7.7 3.5 7.7 7.7 0 4.3-3.5 7.7-7.7 7.7-4.3 0-7.7-3.5-7.7-7.7 0-4.3 3.4-7.7 7.7-7.7m0-2c-5.4 0-9.7 4.4-9.7 9.7 0 5.4 4.4 9.7 9.7 9.7 5.4 0 9.7-4.4 9.7-9.7 0-5.4-4.3-9.7-9.7-9.7z"/><linearGradient id="b" gradientUnits="userSpaceOnUse" x1="63.809" y1="30.868" x2="63.809" y2="42"><stop offset="0" stop-color="#666"/><stop offset="1" stop-color="#4d4d4d"/></linearGradient><path fill="url(#b)" d="M63.8 42c-3.3 0-5.9-2.2-5.9-5.4 0-3.3 2.6-5.7 5.9-5.7 3.3 0 5.9 2.3 5.9 5.6 0 3.2-2.6 5.5-5.9 5.5z"/><path class="outer" fill="#282828" d="M63.8 32.9c2.2 0 4.1 1.8 4.1 4s-1.8 4-4.1 4-4.1-1.8-4.1-4 1.9-4 4.1-4m0-3.6c-4.3 0-7.7 3.5-7.7 7.7 0 4.3 3.5 7.7 7.7 7.7 4.3 0 7.7-3.5 7.7-7.7 0-4.3-3.4-7.7-7.7-7.7z"/><path opacity=".35" fill="#FFF" d="M63.8 33.6c2.2 0 4 1.8 4 4v.2c0-.2.1-.4.1-.6 0-2.2-1.8-4.2-4.1-4.2s-4.1 2-4.1 4.2v.2c.2-2.2 2-3.8 4.1-3.8z"/></g><g class="bottom"><path class="outer" fill="#282828" d="M50.3 56.3c-4.3 0-7.7 3.5-7.7 7.7 0 4.3 3.5 7.7 7.7 7.7 4.3 0 7.7-3.5 7.7-7.7 0-4.3-3.4-7.7-7.7-7.7z"/><path class="edging unknown-edging" opacity=".65" fill="#FFF" d="M50.3 56.3c4.3 0 7.7 3.5 7.7 7.7 0 4.3-3.5 7.7-7.7 7.7-4.3 0-7.7-3.5-7.7-7.7 0-4.3 3.4-7.7 7.7-7.7m0-2c-5.4 0-9.7 4.4-9.7 9.7 0 5.4 4.4 9.7 9.7 9.7 5.4 0 9.7-4.4 9.7-9.7 0-5.4-4.3-9.7-9.7-9.7z"/><linearGradient id="c" gradientUnits="userSpaceOnUse" x1="50.292" y1="57.868" x2="50.292" y2="69"><stop offset="0" stop-color="#666"/><stop offset="1" stop-color="#4d4d4d"/></linearGradient><path fill="url(#c)" d="M50.3 69c-3.3 0-5.9-2.2-5.9-5.4 0-3.3 2.6-5.7 5.9-5.7 3.3 0 5.9 2.3 5.9 5.6 0 3.2-2.6 5.5-5.9 5.5z"/><path class="outer" fill="#282828" d="M50.3 59.9c2.2 0 4.1 1.8 4.1 4s-1.8 4-4.1 4-4.1-1.8-4.1-4 1.8-4 4.1-4m0-3.6c-4.3 0-7.7 3.5-7.7 7.7 0 4.3 3.5 7.7 7.7 7.7 4.3 0 7.7-3.5 7.7-7.7 0-4.3-3.4-7.7-7.7-7.7z"/><path class="highlight" opacity=".35" fill="#FFF" d="M50.3 60.6c2.2 0 4 1.8 4 4v.2c0-.2.1-.4.1-.6 0-2.2-1.8-4.2-4.1-4.2s-4.1 2-4.1 4.2v.2c.2-2.2 1.9-3.8 4.1-3.8z"/></g></g></svg>

<svg xmlns="http://www.w3.org/2000/svg" width="48" height="48" viewBox="0 0 100 100">
  <title>ats</title>
		<g id="ats" class="symbol">
			<g class="contact animate" opacity="0" normal="rotate(0, 50.5, 63.5)"  closed-right="rotate(0, 50.5, 63.5)" closed="rotate(-56, 50.5, 63.5)" closed-left="rotate(-56, 50.5, 63.5)" open="rotate(-27, 50.5, 63.5)">
				<path class="edging" opacity="0.65" fill="#FFFFFF" d="M60.6,41.1c0.8,0,1.6,0.4,2.1,1.1c0.5,0.8,0.6,1.7,0.2,2.5L56,58.8C57.2,60.1,58,62,58,64
					c0,4.3-3.5,7.7-7.7,7.7c-4.3,0-7.7-3.5-7.7-7.7c0-4.3,3.5-7.7,7.7-7.7c0.4,0,0.9,0,1.3,0.1l6.8-13.9c0.2-0.4,0.5-0.7,0.8-1
					C59.6,41.2,60.1,41.1,60.6,41.1 M60.6,39.1c-0.9,0-1.8,0.3-2.6,0.8c-0.6,0.4-1.2,1-1.5,1.7l-6.2,12.6c0,0-0.1,0-0.1,0
					c-5.4,0-9.7,4.4-9.7,9.7c0,5.4,4.4,9.7,9.7,9.7c5.4,0,9.7-4.4,9.7-9.7c0-2-0.6-3.9-1.7-5.5l6.3-13c0.7-1.5,0.6-3.2-0.3-4.5
					C63.5,39.8,62.1,39.1,60.6,39.1L60.6,39.1z"/>
			</g>
			<g class="top-left">
				<path class="outer" fill="#282828" d="M36.8,29.3c-4.3,0-7.7,3.5-7.7,7.7c0,4.3,3.5,7.7,7.7,7.7c4.3,0,7.7-3.5,7.7-7.7
					C44.5,32.7,41.1,29.3,36.8,29.3L36.8,29.3z"/>
				<path class="edging" opacity="0.65" fill="#FFFFFF" d="M36.8,29.3c4.3,0,7.7,3.5,7.7,7.7c0,4.3-3.5,7.7-7.7,7.7c-4.3,0-7.7-3.5-7.7-7.7
						C29.1,32.7,32.5,29.3,36.8,29.3 M36.8,27.3c-5.4,0-9.7,4.4-9.7,9.7c0,5.4,4.4,9.7,9.7,9.7c5.4,0,9.7-4.4,9.7-9.7
						C46.5,31.6,42.2,27.3,36.8,27.3L36.8,27.3z"/>

				<linearGradient id="ats-gradient-3" gradientUnits="userSpaceOnUse" x1="36.8086" y1="30.8682" x2="36.8086" y2="42">
					<stop  offset="0" style="stop-color:#666666"/>
					<stop  offset="1" style="stop-color:#4D4D4D"/>
				</linearGradient>
				<path fill="url(#ats-gradient-3)" d="M36.8,42c-3.3,0-5.9-2.2-5.9-5.4c0-3.3,2.6-5.7,5.9-5.7c3.3,0,5.9,2.3,5.9,5.6
					C42.7,39.7,40.1,42,36.8,42L36.8,42z"/>
				<path class="outer" fill="#282828" d="M36.8,32.9c2.2,0,4.1,1.8,4.1,4c0,2.2-1.8,4-4.1,4c0,0,0,0,0,0c-2.3,0-4.1-1.8-4.1-4
					C32.7,34.7,34.6,32.9,36.8,32.9 M36.8,29.3c-4.3,0-7.7,3.5-7.7,7.7c0,4.3,3.5,7.7,7.7,7.7c4.3,0,7.7-3.5,7.7-7.7
					C44.5,32.7,41.1,29.3,36.8,29.3L36.8,29.3z"/>

				<path class="highlight" opacity="0.35" fill="#FFFFFF" d="M36.8,33.6c2.2,0,4,1.8,4,4c0,0.1,0,0.1,0,0.2c0-0.2,0.1-0.4,0.1-0.6
				c0-2.2-1.8-4.2-4.1-4.2c-2.3,0-4.1,2-4.1,4.2c0,0.1,0,0.2,0,0.2C32.9,35.2,34.7,33.6,36.8,33.6z"/>
			</g>
			<g class="top-right">
				<path class="outer" fill="#282828" d="M63.8,29.3c-4.3,0-7.7,3.5-7.7,7.7c0,4.3,3.5,7.7,7.7,7.7c4.3,0,7.7-3.5,7.7-7.7
					C71.5,32.7,68.1,29.3,63.8,29.3L63.8,29.3z"/>
				<path class="edging" opacity="0.65" fill="#FFFFFF" d="M63.8,29.3c4.3,0,7.7,3.5,7.7,7.7c0,4.3-3.5,7.7-7.7,7.7c-4.3,0-7.7-3.5-7.7-7.7
						C56.1,32.7,59.5,29.3,63.8,29.3 M63.8,27.3c-5.4,0-9.7,4.4-9.7,9.7c0,5.4,4.4,9.7,9.7,9.7c5.4,0,9.7-4.4,9.7-9.7
						C73.5,31.6,69.2,27.3,63.8,27.3L63.8,27.3z"/>

				<linearGradient id="ats-gradient-2" gradientUnits="userSpaceOnUse" x1="63.8086" y1="30.8682" x2="63.8086" y2="42">
					<stop  offset="0" style="stop-color:#666666"/>
					<stop  offset="1" style="stop-color:#4D4D4D"/>
				</linearGradient>
				<path fill="url(#ats-gradient-2)" d="M63.8,42c-3.3,0-5.9-2.2-5.9-5.4c0-3.3,2.6-5.7,5.9-5.7c3.3,0,5.9,2.3,5.9,5.6
					C69.7,39.7,67.1,42,63.8,42L63.8,42z"/>
				<path class="outer" fill="#282828" d="M63.8,32.9c2.2,0,4.1,1.8,4.1,4c0,2.2-1.8,4-4.1,4c0,0,0,0,0,0c-2.3,0-4.1-1.8-4.1-4
					C59.7,34.7,61.6,32.9,63.8,32.9 M63.8,29.3c-4.3,0-7.7,3.5-7.7,7.7c0,4.3,3.5,7.7,7.7,7.7c4.3,0,7.7-3.5,7.7-7.7
					C71.5,32.7,68.1,29.3,63.8,29.3L63.8,29.3z"/>

				<path opacity="0.35" fill="#FFFFFF" d="M63.8,33.6c2.2,0,4,1.8,4,4c0,0.1,0,0.1,0,0.2c0-0.2,0.1-0.4,0.1-0.6
				c0-2.2-1.8-4.2-4.1-4.2c-2.3,0-4.1,2-4.1,4.2c0,0.1,0,0.2,0,0.2C59.9,35.2,61.7,33.6,63.8,33.6z"/>

			</g>

			<g class="contact animate" opacity="0" normal="rotate(0, 50.5, 63.5)"  closed-right="rotate(0, 50.5, 63.5)" closed="rotate(-56, 50.5, 63.5)" closed-left="rotate(-56, 50.5, 63.5)" open="rotate(-27, 50.5, 63.5)">
				<path class="outer" fill="#282828" d="M62.8,44.7c0.4-0.8,0.3-1.7-0.2-2.5c-0.8-1.1-2.3-1.4-3.5-0.6c-0.4,0.3-0.7,0.6-0.8,1l0,0l-6.8,13.9
					c-0.4-0.1-0.8-0.1-1.3-0.1c-4.3,0-7.7,3.5-7.7,7.7c0,4.3,3.5,7.7,7.7,7.7c4.3,0,7.7-3.5,7.7-7.7c0-2-0.8-3.9-2.1-5.2L62.8,44.7
					L62.8,44.7z"/>
			</g>

			<g class="bottom">
				<path class="outer" fill="#282828" d="M50.3,56.3c-4.3,0-7.7,3.5-7.7,7.7c0,4.3,3.5,7.7,7.7,7.7c4.3,0,7.7-3.5,7.7-7.7
					C58,59.7,54.6,56.3,50.3,56.3L50.3,56.3z"/>
				<path class="edging unknown-edging" opacity="0.65" fill="#FFFFFF" d="M50.3,56.3c4.3,0,7.7,3.5,7.7,7.7c0,4.3-3.5,7.7-7.7,7.7c-4.3,0-7.7-3.5-7.7-7.7
						C42.6,59.7,46,56.3,50.3,56.3 M50.3,54.3c-5.4,0-9.7,4.4-9.7,9.7c0,5.4,4.4,9.7,9.7,9.7c5.4,0,9.7-4.4,9.7-9.7
						C60,58.6,55.7,54.3,50.3,54.3L50.3,54.3z"/>

				<linearGradient id="ats-gradient-1" gradientUnits="userSpaceOnUse" x1="50.292" y1="57.8682" x2="50.292" y2="69">
					<stop  offset="0" style="stop-color:#666666"/>
					<stop  offset="1" style="stop-color:#4D4D4D"/>
				</linearGradient>
				<path fill="url(#ats-gradient-1)" d="M50.3,69c-3.3,0-5.9-2.2-5.9-5.4c0-3.3,2.6-5.7,5.9-5.7c3.3,0,5.9,2.3,5.9,5.6
					C56.2,66.7,53.6,69,50.3,69L50.3,69z"/>
				<path class="outer" fill="#282828" d="M50.3,59.9c2.2,0,4.1,1.8,4.1,4c0,2.2-1.8,4-4.1,4c0,0,0,0,0,0c-2.3,0-4.1-1.8-4.1-4
					C46.2,61.7,48,59.9,50.3,59.9 M50.3,56.3c-4.3,0-7.7,3.5-7.7,7.7c0,4.3,3.5,7.7,7.7,7.7c4.3,0,7.7-3.5,7.7-7.7
					C58,59.7,54.6,56.3,50.3,56.3L50.3,56.3z"/>

				<path class="highlight" opacity="0.35" fill="#FFFFFF" d="M50.3,60.6c2.2,0,4,1.8,4,4c0,0.1,0,0.1,0,0.2c0-0.2,0.1-0.4,0.1-0.6
					c0-2.2-1.8-4.2-4.1-4.2c-2.3,0-4.1,2-4.1,4.2c0,0.1,0,0.2,0,0.2C46.4,62.2,48.1,60.6,50.3,60.6z"/>
			</g>
		</g>

		</svg>
